en/_assets/data-transfer/icons/kafka-icon.svg

<svg width="20" height="33" viewBox="0 0 20 33" fill="none" xmlns="http://www.w3.org/2000/svg">
<path d="M15.4011 17.7997C14.1659 17.7997 13.0585 18.3514 12.3002 19.2198L10.3571 17.8332C10.5633 17.2607 10.6818 16.646 10.6818 16.0027C10.6818 15.3704 10.5675 14.766 10.368 14.202L12.3068 12.8301C13.065 13.6942 14.1695 14.2428 15.4011 14.2428C17.6809 14.2428 19.536 12.3732 19.536 10.0748C19.536 7.77643 17.6809 5.90682 15.4011 5.90682C13.1213 5.90682 11.2662 7.77643 11.2662 10.0748C11.2662 10.4862 11.3278 10.8829 11.4385 11.2586L9.4984 12.6312C8.68796 11.6177 7.52106 10.9101 6.19155 10.6941V8.3372C8.06456 7.94067 9.47581 6.2632 9.47581 4.25882C9.47581 1.96044 7.62073 0.0908203 5.34089 0.0908203C3.06105 0.0908203 1.20597 1.96044 1.20597 4.25882C1.20597 6.23636 2.58066 7.89313 4.41621 8.31797V10.7055C1.91117 11.1487 0 13.3524 0 16.0027C0 18.6658 1.9301 20.8776 4.45322 21.3057V23.8268C2.5989 24.2377 1.20597 25.9046 1.20597 27.8956C1.20597 30.194 3.06105 32.0636 5.34089 32.0636C7.62073 32.0636 9.47581 30.194 9.47581 27.8956C9.47581 25.9046 8.08288 24.2377 6.22856 23.8268V21.3057C7.50564 21.0888 8.661 20.4115 9.47947 19.3998L11.4356 20.7954C11.327 21.1677 11.2662 21.5605 11.2662 21.9677C11.2662 24.2661 13.1213 26.1357 15.4011 26.1357C17.6809 26.1357 19.536 24.2661 19.536 21.9677C19.536 19.6694 17.6809 17.7997 15.4011 17.7997ZM15.4011 8.05397C16.5066 8.05397 17.4058 8.96074 17.4058 10.0748C17.4058 11.1889 16.5066 12.0956 15.4011 12.0956C14.2956 12.0956 13.3964 11.1889 13.3964 10.0748C13.3964 8.96074 14.2956 8.05397 15.4011 8.05397ZM3.33608 4.25882C3.33608 3.14474 4.23535 2.23805 5.34089 2.23805C6.44643 2.23805 7.34562 3.14474 7.34562 4.25882C7.34562 5.3729 6.44643 6.27959 5.34089 6.27959C4.23535 6.27959 3.33608 5.3729 3.33608 4.25882ZM7.34562 27.8956C7.34562 29.0097 6.44643 29.9164 5.34089 29.9164C4.23535 29.9164 3.33608 29.0097 3.33608 27.8956C3.33608 26.7815 4.23535 25.8748 5.34089 25.8748C6.44643 25.8748 7.34562 26.7815 7.34562 27.8956ZM5.34074 18.821C3.79884 18.821 2.54449 17.5568 2.54449 16.0027C2.54449 14.4484 3.79884 13.184 5.34074 13.184C6.88256 13.184 8.13691 14.4484 8.13691 16.0027C8.13691 17.5568 6.88256 18.821 5.34074 18.821ZM15.4011 23.9886C14.2956 23.9886 13.3964 23.0818 13.3964 21.9677C13.3964 20.8537 14.2956 19.947 15.4011 19.947C16.5066 19.947 17.4058 20.8537 17.4058 21.9677C17.4058 23.0818 16.5066 23.9886 15.4011 23.9886Z" fill="#231F20"/>
</svg>

<svg xmlns="http://www.w3.org/2000/svg" width="20" height="33" fill="none" viewBox="0 0 20 33">
    <path fill="#231F20" d="M15.401 17.8a4.108 4.108 0 0 0-3.1 1.42l-1.944-1.387a5.388 5.388 0 0 0 .325-1.83c0-.633-.114-1.237-.314-1.801l1.939-1.372a4.108 4.108 0 0 0 3.094 1.413c2.28 0 4.135-1.87 4.135-4.168 0-2.299-1.855-4.168-4.135-4.168s-4.135 1.87-4.135 4.168c0 .411.062.808.172 1.184l-1.94 1.372a5.329 5.329 0 0 0-3.306-1.937V8.337A4.167 4.167 0 0 0 9.476 4.26C9.476 1.96 7.62.09 5.34.09S1.206 1.96 1.206 4.259a4.165 4.165 0 0 0 3.21 4.059v2.388A5.376 5.376 0 0 0 0 16.003a5.375 5.375 0 0 0 4.453 5.303v2.52a4.166 4.166 0 0 0-3.247 4.07c0 2.298 1.855 4.168 4.135 4.168s4.135-1.87 4.135-4.168a4.166 4.166 0 0 0-3.247-4.07v-2.52a5.33 5.33 0 0 0 3.25-1.906l1.957 1.395c-.109.373-.17.765-.17 1.173 0 2.298 1.855 4.168 4.135 4.168s4.135-1.87 4.135-4.168c0-2.299-1.855-4.168-4.135-4.168Zm0-9.746c1.106 0 2.005.907 2.005 2.02 0 1.115-.9 2.022-2.005 2.022a2.015 2.015 0 0 1-2.005-2.021c0-1.114.9-2.021 2.005-2.021ZM3.336 4.259c0-1.114.9-2.021 2.005-2.021s2.005.907 2.005 2.02c0 1.115-.9 2.022-2.005 2.022a2.015 2.015 0 0 1-2.005-2.021Zm4.01 23.637c0 1.114-.9 2.02-2.005 2.02a2.015 2.015 0 0 1-2.005-2.02c0-1.114.9-2.021 2.005-2.021s2.005.907 2.005 2.02ZM5.34 18.82c-1.542 0-2.797-1.264-2.797-2.818 0-1.555 1.255-2.819 2.797-2.819 1.542 0 2.796 1.264 2.796 2.819 0 1.554-1.254 2.818-2.796 2.818Zm10.06 5.168a2.015 2.015 0 0 1-2.005-2.021c0-1.114.9-2.021 2.005-2.021 1.106 0 2.005.907 2.005 2.02 0 1.115-.9 2.022-2.005 2.022Z"/>
</svg>
